src/assets/social_sharing_icons/email_icon.svg

<svg fill="none" height="41" viewBox="0 0 40 41" width="40" xmlns="http://www.w3.org/2000/svg"><circle cx="20" cy="20.4346" fill="#f44747" r="20"/><path d="m28 26.4346h-2v-8.75l-6 3.75-6-3.75v8.75h-2v-12h1.2l6.8 4.25 6.8-4.25h1.2m0-2h-16c-1.11 0-2 .89-2 2v12c0 .5304.2107 1.0391.5858 1.4142s.8838.5858 1.4142.5858h16c.5304 0 1.0391-.2107 1.4142-.5858s.5858-.8838.5858-1.4142v-12c0-1.11-.9-2-2-2z" fill="#fff"/></svg>

<svg width="40" height="41" viewBox="0 0 40 41" fill="none" xmlns="http://www.w3.org/2000/svg">
<circle cx="20" cy="20.4346" r="20" fill="#F44747"/>
<path d="M28 26.4346H26V17.6846L20 21.4346L14 17.6846V26.4346H12V14.4346H13.2L20 18.6846L26.8 14.4346H28M28 12.4346H12C10.89 12.4346 10 13.3246 10 14.4346V26.4346C10 26.965 10.2107 27.4737 10.5858 27.8488C10.9609 28.2239 11.4696 28.4346 12 28.4346H28C28.5304 28.4346 29.0391 28.2239 29.4142 27.8488C29.7893 27.4737 30 26.965 30 26.4346V14.4346C30 13.3246 29.1 12.4346 28 12.4346Z" fill="white"/>
</svg>
